images/svg/bag.svg

<?xml version="1.0" encoding="utf-8"?><!-- Uploaded to: SVG Repo, www.svgrepo.com, Generator: SVG Repo Mixer Tools -->
<svg width="800px" height="800px" viewBox="0 0 24 24" fill="none" xmlns="http://www.w3.org/2000/svg">
<rect width="24" height="24" fill="white"/>
<path d="M9 9H6.84713C6.35829 9 5.9411 9.35341 5.86073 9.8356L4.19407 19.8356C4.09248 20.4451 4.56252 21 5.18046 21H18.8195C19.4375 21 19.9075 20.4451 19.8059 19.8356L18.1393 9.8356C18.0589 9.35341 17.6417 9 17.1529 9H15M9 9H15M9 9C8.66667 7.66667 8 3 12 3C16 3 15.3333 7.66667 15 9" stroke="#000000" stroke-linejoin="round"/>
</svg>

<svg width="800" height="800" viewBox="0 0 24 24" fill="none" xmlns="http://www.w3.org/2000/svg"><path fill="#fff" d="M0 0h24v24H0z"/><path d="M9 9H6.847a1 1 0 00-.986.836l-1.667 10A1 1 0 005.18 21h13.64a1 1 0 00.986-1.164l-1.667-10A1 1 0 0017.153 9H15M9 9h6M9 9c-.333-1.333-1-6 3-6s3.333 4.667 3 6" stroke="#000" stroke-linejoin="round"/></svg>
